X:1
T:Title
%%score { 1 | ( 2 3 ) }
L:1/8
M:3/4
K:Ab
V:1 treble nm="Grand Piano"
V:2 bass 
V:3 bass 
V:1
 z2 z2[Q:1/4=92] [CE]2 | [Ec]>[=D_c] [E=c]3 [EA] | (3BAF [CE]3 E | d>c d3 [EG] | [EA]>B c3 [CE] | %5
 [Ec]>[=D_c] [E=c]3 [EA] | (3BAF [CE]3 [CE] | (3EAB c3 c | B2 [CEA]4 | [GB]>[Ac] [Bd]4 | %10
 [Ac]>[Bd] [ce]4 | e3 c B[=Dc] | [DB]2 [DE]2 [Fd]2 | [Ec]>[=D_c] [E=c]3 [EA] | (3BAF [CE]3 [CE] | %15
 (3EAB c3 c |[M:5/8] B2 [CEA]3 |] %17
V:2
 z2 z2 [A,,A,]2 | [A,,A,]>[A,,A,] [A,,A,]3 [C,A,] | (3:2:2[D,F,D]2 [D,A,D] [A,,A,]3 [A,C] | %3
 [E,B,E]>[E,=A,E] [E,B,E]3 [D,B,] | [C,A,]>[E,G,E] [A,E]3 [A,,A,] | %5
 [A,,A,]>[A,,A,] [A,,A,]3 [C,A,] | (3:2:2[D,F,D]2 [D,A,D] [A,,A,]3 [A,,A,] | C2 z2 z2 | %8
 [E,DE]2 A,,4 | [E,E]2 [E,E]4 | [A,E]2 [A,E]4 | [A,CE]3 [A,E] [F,A,=D][B,,A,] | %12
 [E,G,]2 [E,G,]2 [E,G,]2 | [A,,A,]>[A,,A,] [A,,A,]3 [C,A,] | %14
 (3:2:2[D,F,D]2 [D,A,D] [A,,A,]3 [A,,A,] | C2 z2 z2 |[M:5/8] [E,DE]2 A,,3 |] %17
V:3
 x6 | x6 | x6 | x6 | x6 | x6 | x6 | (3:2:2[E,A,]2 [E,G,D] [E,A,E]3 [E,A,E] | x6 | x6 | x6 | x6 | %12
 x6 | x6 | x6 | (3:2:2[E,A,]2 [E,G,D] [E,A,E]3 [E,A,E] |[M:5/8] x5 |] %17

